svg/u1f4a2.svg

<svg viewBox="0 0 128 128" xmlns="http://www.w3.org/2000/svg">
  <path d="M63.7,40.03c-27.77,0-38.93-27.23-38.93-27.23c-1.22-2.34-1.79-5.33-0.03-7.38 c0.13-0.15,0.26-0.28,0.39-0.41c2.19-2.02,5.49-0.86,6.61,2.11c2.27,6.02,11.25,18.63,31.79,18.63 c21.24,0,30.81-13.83,32.87-19.01c0.43-1.09,1.18-2.01,2.17-2.4c1.58-0.62,3.4-0.2,4.66,1.26c1.76,2.04,1.3,4.28-0.02,7.38 C103.21,12.98,91.47,40.03,63.7,40.03z" fill="#F44336"/>
  <path d="M64.71,87.97c27.77,0,38.93,27.23,38.93,27.23c1.22,2.34,1.79,5.33,0.03,7.38 c-0.13,0.15-0.26,0.28-0.39,0.41c-2.19,2.02-5.49,0.86-6.61-2.11c-2.27-6.02-11.25-18.63-31.79-18.63 c-21.24,0-30.81,13.83-32.87,19.01c-0.43,1.09-1.18,2.01-2.17,2.4c-1.58,0.62-3.4,0.2-4.66-1.26c-1.76-2.04-1.3-4.28,0.02-7.38 C25.2,115.02,36.93,87.97,64.71,87.97z" fill="#F44336"/>
  <path d="M87.97,63.62c0-27.33,27.23-38.31,27.23-38.31c2.34-1.2,5.33-1.76,7.38-0.03 c0.15,0.12,0.28,0.25,0.41,0.39c2.02,2.15,0.86,5.4-2.11,6.5c-6.02,2.24-18.63,11.07-18.63,31.28c0,20.9,13.83,30.32,19.01,32.34 c1.09,0.42,2.01,1.16,2.4,2.13c0.62,1.56,0.2,3.35-1.26,4.59c-2.04,1.73-4.28,1.28-7.38-0.01 C115.02,102.49,87.97,90.94,87.97,63.62z" fill="#F44336"/>
  <path d="M40.03,64.21c0,27.33-27.23,38.31-27.23,38.31c-2.34,1.2-5.33,1.76-7.38,0.03 c-0.15-0.12-0.28-0.25-0.41-0.39c-2.02-2.15-0.86-5.4,2.11-6.5c6.02-2.24,18.63-11.07,18.63-31.28c0-20.9-13.83-30.32-19.01-32.34 c-1.09-0.42-2.01-1.16-2.4-2.13c-0.62-1.56-0.2-3.35,1.26-4.59c2.04-1.73,4.28-1.28,7.38,0.01 C12.98,25.33,40.03,36.88,40.03,64.21z" fill="#F44336"/>
</svg>

<svg viewBox="0 0 128 128" xmlns="http://www.w3.org/2000/svg">
  <defs/>
  <path d="M63.7,40.03 C35.93,40.03 24.77,12.8 24.77,12.8 C23.55,10.46 22.98,7.47 24.74,5.42 C24.87,5.27 25,5.14 25.13,5.01 C27.32,2.99 30.62,4.15 31.74,7.12 C34.01,13.14 42.99,25.75 63.53,25.75 C84.77,25.75 94.34,11.92 96.4,6.74 C96.83,5.65 97.58,4.73 98.57,4.34 C100.15,3.72 101.97,4.14 103.23,5.6 C104.99,7.64 104.53,9.88 103.21,12.98 C103.21,12.98 91.47,40.03 63.7,40.03 Z" fill="#F44336"/>
  <path d="M64.71,87.97 C92.48,87.97 103.64,115.2 103.64,115.2 C104.86,117.54 105.43,120.53 103.67,122.58 C103.54,122.73 103.41,122.86 103.28,122.99 C101.09,125.01 97.79,123.85 96.67,120.88 C94.4,114.86 85.42,102.25 64.88,102.25 C43.64,102.25 34.07,116.08 32.01,121.26 C31.58,122.35 30.83,123.27 29.84,123.66 C28.26,124.28 26.44,123.86 25.18,122.4 C23.42,120.36 23.88,118.12 25.2,115.02 C25.2,115.02 36.93,87.97 64.71,87.97 Z" fill="#F44336"/>
  <path d="M87.97,63.62 C87.97,36.29 115.2,25.31 115.2,25.31 C117.54,24.11 120.53,23.55 122.58,25.28 C122.73,25.4 122.86,25.53 122.99,25.67 C125.01,27.82 123.85,31.07 120.88,32.17 C114.86,34.41 102.25,43.24 102.25,63.45 C102.25,84.35 116.08,93.77 121.26,95.79 C122.35,96.21 123.27,96.95 123.66,97.92 C124.28,99.48 123.86,101.27 122.4,102.51 C120.36,104.24 118.12,103.79 115.02,102.5 C115.02,102.49 87.97,90.94 87.97,63.62 Z" fill="#F44336"/>
  <path d="M40.03,64.21 C40.03,91.54 12.8,102.52 12.8,102.52 C10.46,103.72 7.47,104.28 5.42,102.55 C5.27,102.43 5.14,102.3 5.01,102.16 C2.99,100.01 4.15,96.76 7.12,95.66 C13.14,93.42 25.75,84.59 25.75,64.38 C25.75,43.48 11.92,34.06 6.74,32.04 C5.65,31.62 4.73,30.88 4.34,29.91 C3.72,28.35 4.14,26.56 5.6,25.32 C7.64,23.59 9.88,24.04 12.98,25.33 C12.98,25.33 40.03,36.88 40.03,64.21 Z" fill="#F44336"/>
</svg>
